X: 1
T: Old Mother Nikki
M: C|
L: 1/8
K:Aphr
|: "A5"a2a2 fe^cd | efe^c BAG2 | "A5"ABAG EGAB |^cBcd "E7"e4 |
"A5"a2a2 fe^cd | efe^c BAG2 | "A5"ABAG EGAB |"E7"^cAB2 "A5"A4 :|
|: "A5"ABAG EGA2 | ^c2c2 BA G2| "A5"ABAG EGAB | ^c2d2 "E7"e4 |
|  "Dm"d2fd "A5"^c2ec | BABc BAG2 | "A5"ABAG EGAB | "E7"^cAB2 "A5"A4 :|
